htdocs/img/pokeball-special-noshade.svg

<svg fill="none" height="170" viewBox="0 0 169 170" width="169" xmlns="http://www.w3.org/2000/svg" xmlns:xlink="http://www.w3.org/1999/xlink"><clipPath id="a"><path d="m0 .030518h169v169h-169z"/></clipPath><g clip-path="url(#a)"><path d="m84.3552 167.962c46.0708 0 83.4188-37.348 83.4188-83.419 0-46.0711-37.348-83.4191-83.4188-83.4191-46.0711 0-83.419089 37.348-83.419089 83.4191 0 46.071 37.347989 83.419 83.419089 83.419z" fill="#ac2421"/><path d="m84.3552 161.981c42.7678 0 77.4378-34.67 77.4378-77.438 0-42.7678-34.67-77.43796-77.4378-77.43796s-77.43793 34.67016-77.43793 77.43796c0 42.768 34.67013 77.438 77.43793 77.438z" fill="#c92223"/><path d="m84.3552 156c39.4648 0 71.4568-31.993 71.4568-71.457 0-39.4645-31.992-71.4568-71.4568-71.4568-39.4645 0-71.4568 31.9923-71.4568 71.4568 0 39.464 31.9923 71.457 71.4568 71.457z" fill="#c92223"/><path d="m84.3552 150.021c36.1628 0 65.4778-29.315 65.4778-65.478 0-36.1626-29.315-65.4782-65.4778-65.4782-36.1626 0-65.4781 29.3156-65.4781 65.4782 0 36.163 29.3155 65.478 65.4781 65.478z" fill="#e63739"/><g clip-rule="evenodd" fill-rule="evenodd"><path d="m139.446 148.621c-14.661 12.242-33.53 19.613-54.1222 19.613-42.0004 0-76.83636-30.642-83.38917-70.7901 10.39217 10.4841 25.55717 19.0721 43.62797 24.5141 1.0734 7.988 6.0286 15.377 13.8845 19.304 12.4915 6.245 27.5792 1.378 33.7026-10.867.342-.684.6465-1.375.9187-2.074 28.5776-.652 53.9056-8.837 70.7226-21.583l-.002.002-27.29 40.69z" fill="#5b5b5b"/><path d="m166.336 105.667c-9.386 36.438-42.467 63.364-81.836 63.364-41.9979 0-76.83634-30.643-83.38665-70.7908 10.38965 10.4848 25.55715 19.0718 43.62795 24.5158 1.0734 7.989 6.0286 15.375 13.8845 19.302 12.489 6.246 27.5792 1.38 33.7026-10.867.3395-.683.6441-1.375.9162-2.071 29.9534-.684 56.3314-9.641 73.0914-23.453z" fill="#f3f3f3"/><path d="m158.668 115.932c-18.52 11.161-41.691 16.276-62.7998 17.094-7.2094 14.347-24.7609 19.731-39.0248 12.599-7.9283-3.964-13.6523-11.218-15.5944-19.778-11.6678-3.74-23.3779-9.184-33.38563-16.563 10.54693 32.766 41.30143 55.76 76.63663 55.76 32.692 0 61.744-19.731 74.168-49.112z" fill="#ebecec"/><path d="m149.309 125.278c-15.996 7.129-34.035 10.734-51.0269 11.63-8.792 14.736-27.7065 20.04-43.2236 12.284-8.3027-4.151-14.4735-11.49-17.1096-20.235-7.3517-2.479-14.6658-5.619-21.5532-9.468 12.8086 24.928 38.8026 41.568 68.1043 41.568 26.828 0 51.082-13.981 64.809-35.779z" fill="#f3f3f3"/><path d="m21.1188 112.983c7.082 3.88 15.0227 7.182 23.6225 9.773 1.0734 7.989 6.0286 15.375 13.8845 19.302 12.489 6.246 27.5792 1.38 33.7026-10.867.3395-.684.6441-1.375.9162-2.071 18.4024-.422 35.4554-3.965 49.7584-9.838-10.057 24.955-33.061 42.402-59.836 42.402-28.9772 0-53.5358-20.432-62.0482-48.701z" fill="#ebecec"/><path d="m166.851 95.6765c-16.426 13.7975-42.383 22.8515-71.9589 23.8295-.2621-8.944-5.4045-17.524-14.0941-21.8674-12.4915-6.2457-27.5792-1.3804-33.7027 10.8664-.7888 1.578-1.3879 3.203-1.8123 4.845-18.2804-5.424-33.6302-14.0613-44.12222-24.6282v1.2257c11.87242 11.6755 28.12342 19.5615 43.87512 24.2365l.8637.255.2247-.871c.4144-1.616 1.001-3.183 1.7474-4.674 5.9936-11.9893 20.6544-16.4202 32.5368-10.479 8.0581 4.027 13.3503 12.107 13.6149 21.116l.025.871.8712-.027c14.3164-.474 28.8094-2.856 42.3594-7.564 10.51-3.649 20.922-8.882 29.572-16.0036z" fill="#5b5b5b"/><path d="m84.5.0305176c46.668 0 84.5 37.8315824 84.5 84.4999824 0 3.3351-.2 6.6227-.574 9.8554-16.316 14.5611-42.994 24.1841-73.5339 25.1931-.2621-8.942-5.4045-17.524-14.0941-21.868-12.4915-6.2457-27.5792-1.3804-33.7027 10.866-.7888 1.578-1.3879 3.203-1.8123 4.846-18.9295-5.617-34.7136-14.6785-45.218096-25.7571-.0399409-1.041-.064904-2.0844-.064904-3.1354 0-46.6684 37.8315-84.4999824 84.5-84.4999824z" fill="#f3f3f3"/><path d="m42.7617 108.46c.2397-.564.4943-1.118.7664-1.665 7.1944-14.3861 24.7684-19.7906 39.0522-12.6512 8.4351 4.2187 14.3264 12.1472 15.894 21.2812 22.7987-1.326 48.6357-8.073 66.1517-23.0161.258-2.6187.387-5.2473.387-7.8784 0-44.4667-36.046-80.51338-80.513-80.51338-44.4667 0-80.5134 36.04668-80.5134 80.51338 0 .4893.00749.9811.01748 1.4703 10.42462 10.4995 24.69592 17.8362 38.75762 22.4592z" fill="#f3f3f3"/><path d="m40.7422 103.547c8.6098-15.2545 27.8663-20.8463 43.6205-12.9679 8.4725 4.2337 14.6783 11.7729 17.2293 20.6319 20.532-1.672 43.284-7.883 59.208-20.8042.149-1.9546.227-3.9142.227-5.8763 0-42.2675-34.26-76.52678-76.527-76.52678-42.1926 0-76.40697 34.14198-76.5243 76.30718 9.0291 8.6497 20.8866 14.9653 32.7665 19.2361z" fill="#ebecec"/><path d="m39.0997 98.6746c10.3471-14.873 30.4249-19.973 47.0479-11.6628 8.4599 4.2288 14.8934 11.4007 18.2104 19.9382 18.316-1.895 38.196-7.534 52.577-18.5727.07-1.2806.105-2.5637.105-3.8468 0-40.0657-32.474-72.5377-72.54-72.5377-39.4192 0-71.4917 31.4335-72.5127 70.6081 7.6686 6.9472 17.3144 12.2468 27.1124 16.0737z" fill="#f3f3f3"/><path d="m146.461 108.3c-14.564 6.576-32.297 10.642-51.5689 11.279-.2621-8.942-5.4045-17.524-14.0941-21.868-12.4915-6.2457-27.5792-1.3804-33.7027 10.866-.7888 1.578-1.3879 3.203-1.8123 4.846-9.798-2.906-18.7523-6.738-26.5707-11.293-.5217-3.5902-.7938-7.2723-.7938-11.0192 0-38.9799 29.2118-70.5756 65.2485-70.5756 36.034 0 65.246 31.5957 65.246 70.5756 0 5.9287-.679 11.6882-1.952 17.1892z" fill="#ebecec"/></g><path d="m61.2208 135.62c8.7723 4.386 19.3695.968 23.6695-7.633s.6745-19.128-8.0978-23.514c-8.7722-4.386-19.3694-.968-23.6694 7.633-4.3 8.6-.6745 19.128 8.0977 23.514z" fill="#5b5b5b"/><path d="m61.2235 135.268c8.4424 4.221 18.6412.932 22.7795-7.345 4.1383-8.278.6492-18.41-7.7933-22.63-8.4424-4.221-18.6411-.933-22.7795 7.345-4.1383 8.278-.6492 18.409 7.7933 22.63z" fill="#ebecec"/><path clip-rule="evenodd" d="m69.0029 137.108h-.015c-.1298 0-.2621 0-.3919-.003-2.359-.055-4.7529-.649-7.0121-1.837-8.0381-4.221-11.3607-14.351-7.419-22.629 2.7684-5.819 8.3876-9.174 14.2739-9.186h.0049c.1323 0 .2622 0 .3945.005 2.359.054 4.7504.646 7.0121 1.834 8.0381 4.222 11.3582 14.354 7.419 22.632-2.7684 5.814-8.3826 9.169-14.2664 9.184z" fill="#fefefe" fill-rule="evenodd"/><path clip-rule="evenodd" d="m69.0029 137.108h-.015c-.1298 0-.2621 0-.3919-.003-2.359-.055-4.753-.649-7.0121-1.837-8.0381-4.221-11.3607-14.351-7.419-22.629 2.7684-5.819 8.3876-9.174 14.2738-9.186h.005c.1323 0 .2622 0 .3945.005 2.359.054 4.7504.646 7.0121 1.834 1.8497.971 3.4499 2.257 4.7704 3.762 3.717 6.176 4.3835 14.099 1.0909 21.014-.2371.497-.4893.979-.7564 1.446-3.0355 3.584-7.414 5.581-11.9523 5.594z" fill="#f3f3f3" fill-rule="evenodd"/><path d="m63.3818 131.677c5.3871 2.694 11.895.595 14.5357-4.687s.4142-11.747-4.9729-14.44c-5.3872-2.694-11.8951-.595-14.5358 4.687s-.4142 11.747 4.973 14.44z" fill="#5b5b5b"/><path d="m63.5266 131.031c4.8969 2.448 10.8124.541 13.2128-4.261 2.4003-4.801.3765-10.678-4.5203-13.126-4.8969-2.448-10.8124-.54-13.2128 4.261-2.4003 4.801-.3765 10.678 4.5203 13.126z" fill="#fefefe"/><path d="m64.1565 131.05c4.6799 2.404 10.3335.531 12.6275-4.182 2.2941-4.714.3599-10.484-4.3201-12.887-4.68-2.404-10.3335-.531-12.6276 4.183-2.294 4.713-.3598 10.483 4.3202 12.886z" fill="#d9dada"/><path clip-rule="evenodd" d="m72.4628 113.979c2.017 1.036 3.5223 2.696 4.401 4.629.5666 2.344.3595 4.882-.7639 7.194-2.0869 4.289-6.6876 6.455-11.1385 5.617-.2696-.11-.5392-.233-.8038-.367-4.6806-2.404-6.6152-8.176-4.3211-12.889s7.9482-6.587 12.6263-4.184z" fill="#ebecec" fill-rule="evenodd"/></g></svg>

<svg width="169" height="170" viewBox="0 0 169 170" fill="none" xmlns="http://www.w3.org/2000/svg">
<g clip-path="url(#clip0)">
<path d="M84.3552 167.962C130.426 167.962 167.774 130.614 167.774 84.543C167.774 38.4719 130.426 1.1239 84.3552 1.1239C38.2841 1.1239 0.936111 38.4719 0.936111 84.543C0.936111 130.614 38.2841 167.962 84.3552 167.962Z" fill="#AC2421"/>
<path d="M84.3552 161.981C127.123 161.981 161.793 127.311 161.793 84.543C161.793 41.7752 127.123 7.10504 84.3552 7.10504C41.5874 7.10504 6.91727 41.7752 6.91727 84.543C6.91727 127.311 41.5874 161.981 84.3552 161.981Z" fill="#C92223"/>
<path d="M84.3552 156C123.82 156 155.812 124.007 155.812 84.543C155.812 45.0785 123.82 13.0862 84.3552 13.0862C44.8907 13.0862 12.8984 45.0785 12.8984 84.543C12.8984 124.007 44.8907 156 84.3552 156Z" fill="#C92223"/>
<path d="M84.3552 150.021C120.518 150.021 149.833 120.706 149.833 84.543C149.833 48.3804 120.518 19.0648 84.3552 19.0648C48.1926 19.0648 18.8771 48.3804 18.8771 84.543C18.8771 120.706 48.1926 150.021 84.3552 150.021Z" fill="#E63739"/>
<path fill-rule="evenodd" clip-rule="evenodd" d="M139.446 148.621C124.785 160.863 105.916 168.234 85.3238 168.234C43.3234 168.234 8.48744 137.592 1.93463 97.4439C12.3268 107.928 27.4918 116.516 45.5626 121.958C46.636 129.946 51.5912 137.335 59.4471 141.262C71.9386 147.507 87.0263 142.64 93.1497 130.395C93.4917 129.711 93.7962 129.02 94.0684 128.321C122.646 127.669 147.974 119.484 164.791 106.738L164.789 106.74L137.499 147.43L139.446 148.621Z" fill="#5B5B5B"/>
<path fill-rule="evenodd" clip-rule="evenodd" d="M166.336 105.667C156.95 142.105 123.869 169.031 84.5 169.031C42.5021 169.031 7.66366 138.388 1.11335 98.2402C11.503 108.725 26.6705 117.312 44.7413 122.756C45.8147 130.745 50.7699 138.131 58.6258 142.058C71.1148 148.304 86.205 143.438 92.3284 131.191C92.6679 130.508 92.9725 129.816 93.2446 129.12C123.198 128.436 149.576 119.479 166.336 105.667Z" fill="#F3F3F3"/>
<path fill-rule="evenodd" clip-rule="evenodd" d="M158.668 115.932C140.148 127.093 116.977 132.208 95.8682 133.026C88.6588 147.373 71.1073 152.757 56.8434 145.625C48.9151 141.661 43.1911 134.407 41.249 125.847C29.5812 122.107 17.8711 116.663 7.86337 109.284C18.4103 142.05 49.1648 165.044 84.5 165.044C117.192 165.044 146.244 145.313 158.668 115.932Z" fill="#EBECEC"/>
<path fill-rule="evenodd" clip-rule="evenodd" d="M149.309 125.278C133.313 132.407 115.274 136.012 98.2821 136.908C89.4901 151.644 70.5756 156.948 55.0585 149.192C46.7558 145.041 40.585 137.702 37.9489 128.957C30.5972 126.478 23.2831 123.338 16.3957 119.489C29.2043 144.417 55.1983 161.057 84.5 161.057C111.328 161.057 135.582 147.076 149.309 125.278Z" fill="#F3F3F3"/>
<path fill-rule="evenodd" clip-rule="evenodd" d="M21.1188 112.983C28.2008 116.863 36.1415 120.165 44.7413 122.756C45.8147 130.745 50.7699 138.131 58.6258 142.058C71.1148 148.304 86.205 143.438 92.3284 131.191C92.6679 130.507 92.9725 129.816 93.2446 129.12C111.647 128.698 128.7 125.155 143.003 119.282C132.946 144.237 109.942 161.684 83.167 161.684C54.1898 161.684 29.6312 141.252 21.1188 112.983Z" fill="#EBECEC"/>
<path fill-rule="evenodd" clip-rule="evenodd" d="M166.851 95.6765C150.425 109.474 124.468 118.528 94.8921 119.506C94.63 110.562 89.4876 101.982 80.798 97.6386C68.3065 91.3929 53.2188 96.2582 47.0953 108.505C46.3065 110.083 45.7074 111.708 45.283 113.35C27.0026 107.926 11.6528 99.2887 1.16078 88.7218V89.9475C13.0332 101.623 29.2842 109.509 45.0359 114.184L45.8996 114.439L46.1243 113.568C46.5387 111.952 47.1253 110.385 47.8717 108.894C53.8653 96.9047 68.5261 92.4738 80.4085 98.415C88.4666 102.442 93.7588 110.522 94.0234 119.531L94.0484 120.402L94.9196 120.375C109.236 119.901 123.729 117.519 137.279 112.811C147.789 109.162 158.201 103.929 166.851 96.8074V95.6765Z" fill="#5B5B5B"/>
<path fill-rule="evenodd" clip-rule="evenodd" d="M84.5 0.0305176C131.168 0.0305176 169 37.8621 169 84.5305C169 87.8656 168.8 91.1532 168.426 94.3859C152.11 108.947 125.432 118.57 94.8921 119.579C94.63 110.637 89.4876 102.055 80.798 97.711C68.3065 91.4653 53.2188 96.3306 47.0953 108.577C46.3065 110.155 45.7074 111.78 45.283 113.423C26.3535 107.806 10.5694 98.7445 0.064904 87.6659C0.0249631 86.6249 0 85.5815 0 84.5305C0 37.8621 37.8315 0.0305176 84.5 0.0305176V0.0305176Z" fill="#F3F3F3"/>
<path fill-rule="evenodd" clip-rule="evenodd" d="M42.7617 108.46C43.0014 107.896 43.256 107.342 43.5281 106.795C50.7225 92.4089 68.2965 87.0044 82.5803 94.1438C91.0154 98.3625 96.9067 106.291 98.4743 115.425C121.273 114.099 147.11 107.352 164.626 92.4089C164.884 89.7902 165.013 87.1616 165.013 84.5305C165.013 40.0638 128.967 4.01712 84.5 4.01712C40.0333 4.01712 3.9866 40.0638 3.9866 84.5305C3.9866 85.0198 3.99409 85.5116 4.00408 86.0008C14.4287 96.5003 28.7 103.837 42.7617 108.46Z" fill="#F3F3F3"/>
<path fill-rule="evenodd" clip-rule="evenodd" d="M40.7422 103.547C49.352 88.2925 68.6085 82.7007 84.3627 90.5791C92.8352 94.8128 99.041 102.352 101.592 111.211C122.124 109.539 144.876 103.328 160.8 90.4068C160.949 88.4522 161.027 86.4926 161.027 84.5305C161.027 42.263 126.767 8.00372 84.5 8.00372C42.3074 8.00372 8.09303 42.1457 7.9757 84.3109C17.0048 92.9606 28.8623 99.2762 40.7422 103.547Z" fill="#EBECEC"/>
<path fill-rule="evenodd" clip-rule="evenodd" d="M39.0997 98.6746C49.4468 83.8016 69.5246 78.7016 86.1476 87.0118C94.6075 91.2406 101.041 98.4125 104.358 106.95C122.674 105.055 142.554 99.416 156.935 88.3773C157.005 87.0967 157.04 85.8136 157.04 84.5305C157.04 44.4648 124.566 11.9928 84.5 11.9928C45.0808 11.9928 13.0083 43.4263 11.9873 82.6009C19.6559 89.5481 29.3017 94.8477 39.0997 98.6746Z" fill="#F3F3F3"/>
<path fill-rule="evenodd" clip-rule="evenodd" d="M146.461 108.3C131.897 114.876 114.164 118.942 94.8921 119.579C94.63 110.637 89.4876 102.055 80.798 97.711C68.3065 91.4653 53.2188 96.3306 47.0953 108.577C46.3065 110.155 45.7074 111.78 45.283 113.423C35.485 110.517 26.5307 106.685 18.7123 102.13C18.1906 98.5398 17.9185 94.8577 17.9185 91.1108C17.9185 52.1309 47.1303 20.5352 83.167 20.5352C119.201 20.5352 148.413 52.1309 148.413 91.1108C148.413 97.0395 147.734 102.799 146.461 108.3Z" fill="#EBECEC"/>
<path d="M61.2208 135.62C69.9931 140.006 80.5903 136.588 84.8903 127.987C89.1903 119.386 85.5648 108.859 76.7925 104.473C68.0203 100.087 57.4231 103.505 53.1231 112.106C48.8231 120.706 52.4486 131.234 61.2208 135.62Z" fill="#5B5B5B"/>
<path d="M61.2235 135.268C69.6659 139.489 79.8647 136.2 84.003 127.923C88.1413 119.645 84.6522 109.513 76.2097 105.293C67.7673 101.072 57.5686 104.36 53.4302 112.638C49.2919 120.916 52.781 131.047 61.2235 135.268Z" fill="#EBECEC"/>
<path fill-rule="evenodd" clip-rule="evenodd" d="M69.0029 137.108H68.9879C68.8581 137.108 68.7258 137.108 68.596 137.105C66.237 137.05 63.8431 136.456 61.5839 135.268C53.5458 131.047 50.2232 120.917 54.1649 112.639C56.9333 106.82 62.5525 103.465 68.4388 103.453H68.4437C68.576 103.453 68.7059 103.453 68.8382 103.458C71.1972 103.512 73.5886 104.104 75.8503 105.292C83.8884 109.514 87.2085 119.646 83.2693 127.924C80.5009 133.738 74.8867 137.093 69.0029 137.108Z" fill="#FEFEFE"/>
<path fill-rule="evenodd" clip-rule="evenodd" d="M69.0029 137.108H68.9879C68.8581 137.108 68.7258 137.108 68.596 137.105C66.237 137.05 63.843 136.456 61.5839 135.268C53.5458 131.047 50.2232 120.917 54.1649 112.639C56.9333 106.82 62.5525 103.465 68.4387 103.453H68.4437C68.576 103.453 68.7059 103.453 68.8382 103.458C71.1972 103.512 73.5886 104.104 75.8503 105.292C77.7 106.263 79.3002 107.549 80.6207 109.054C84.3377 115.23 85.0042 123.153 81.7116 130.068C81.4745 130.565 81.2223 131.047 80.9552 131.514C77.9197 135.098 73.5412 137.095 69.0029 137.108Z" fill="#F3F3F3"/>
<path d="M63.3818 131.677C68.7689 134.371 75.2768 132.272 77.9175 126.99C80.5582 121.708 78.3317 115.243 72.9446 112.55C67.5574 109.856 61.0495 111.955 58.4088 117.237C55.7681 122.519 57.9946 128.984 63.3818 131.677Z" fill="#5B5B5B"/>
<path d="M63.5266 131.031C68.4235 133.479 74.339 131.572 76.7394 126.77C79.1397 121.969 77.1159 116.092 72.2191 113.644C67.3222 111.196 61.4067 113.104 59.0063 117.905C56.606 122.706 58.6298 128.583 63.5266 131.031Z" fill="#FEFEFE"/>
<path d="M64.1565 131.05C68.8364 133.454 74.49 131.581 76.784 126.868C79.0781 122.154 77.1439 116.384 72.4639 113.981C67.7839 111.577 62.1304 113.45 59.8363 118.164C57.5423 122.877 59.4765 128.647 64.1565 131.05Z" fill="#D9DADA"/>
<path fill-rule="evenodd" clip-rule="evenodd" d="M72.4628 113.979C74.4798 115.015 75.9851 116.675 76.8638 118.608C77.4304 120.952 77.2233 123.49 76.0999 125.802C74.013 130.091 69.4123 132.257 64.9614 131.419C64.6918 131.309 64.4222 131.186 64.1576 131.052C59.477 128.648 57.5424 122.876 59.8365 118.163C62.1306 113.45 67.7847 111.576 72.4628 113.979Z" fill="#EBECEC"/>
</g>
<defs>
<clipPath id="clip0">
<rect width="169" height="169" fill="white" transform="translate(0 0.0305176)"/>
</clipPath>
</defs>
</svg>
